svg/u1f468_1f3fb_200d_1f9b2.svg

<svg viewBox="0 0 128 128" xmlns="http://www.w3.org/2000/svg">
  <g id="shirt">
    <linearGradient id="SVGID_1_" gradientTransform="matrix(1 0 0 -1 0 128)" gradientUnits="userSpaceOnUse" x1="64.005" x2="64.005" y1="32.8998" y2="5.0042">
      <stop offset="0" stop-color="#00BFA5"/>
      <stop offset="0.7047" stop-color="#00B29A"/>
      <stop offset="1" stop-color="#00AB94"/>
    </linearGradient>
    <path d="M64.13,94.68H64c-25.49,0.03-51.13,7.5-51.13,25.28v4h1.5h1.5h96.27h1.5h1.5v-4 C115.13,103.2,89.73,94.68,64.13,94.68z" fill="url(#SVGID_1_)"/>
  </g>
  <path id="neck" d="M73.08,90.08H54.92v9.98c0,4.51,3.7,8.17,8.26,8.17h1.65c4.56,0,8.26-3.66,8.26-8.17v-9.98 H73.08z" fill="#EDC391"/>
  <g id="face">
    <path id="ears" d="M36.67,72.26c-5.36,0-9.71-4.67-9.71-10.41s4.36-10.41,9.71-10.41h54.65 c5.36,0,9.71,4.67,9.71,10.41s-4.36,10.41-9.71,10.41H36.67z" fill="#EDC391"/>
    <path id="head" d="M64,11.07c-24,0-33.52,16.09-33.52,42.43c0,26.64,16.61,41.77,33.52,41.77 S97.52,80.14,97.52,53.5C97.52,26.72,88,11.07,64,11.07z" fill="#F9DDBD"/>
    <g id="eyebrows_1_">
      <path d="M39.82,50.73c3.18-4.51,10.66-4.66,14.41-0.82c0.65,0.67,1.34,1.53,0.85,2.5 c-0.54,1.07-1.65,0.9-2.56,0.53c-2.43-0.98-4.94-1.42-7.55-0.89c-1.13,0.23-2.1,0.7-3.17,1.08 C40.36,53.62,38.89,52.12,39.82,50.73z" fill="#454140"/>
      <path d="M86.27,53.13c-2.23-0.97-4.49-1.53-6.95-1.25c-1.12,0.13-2.22,0.42-3.26,0.83 c-0.83,0.33-1.72,0.86-2.58,0.28c-2.45-1.69,1.89-4.44,3.17-4.99c2.76-1.19,6.05-1.08,8.72,0.31c1.06,0.55,2.21,1.35,2.84,2.4 C89,52.02,87.82,53.76,86.27,53.13z" fill="#454140"/>
    </g>
    <g id="eyes">
      <ellipse cx="47.37" cy="58.81" fill="#312D2D" rx="4.93" ry="5.1"/>
      <ellipse cx="80.63" cy="58.81" fill="#312D2D" rx="4.93" ry="5.1"/>
    </g>
    <path id="nose" d="M67.85,68.06c-0.11-0.04-0.21-0.07-0.32-0.08h-7.07c-0.11,0.01-0.22,0.04-0.32,0.08 c-0.64,0.26-0.99,0.92-0.69,1.63s1.71,2.69,4.55,2.69c2.84,0,4.25-1.99,4.55-2.69C68.84,68.98,68.49,68.32,67.85,68.06z" fill="#DBA689"/>
    <path id="mouth" d="M72.42,76.14c-3.19,1.89-13.63,1.89-16.81,0c-1.83-1.09-3.7,0.58-2.94,2.24 c0.75,1.63,6.45,5.42,11.37,5.42s10.55-3.79,11.3-5.42C76.09,76.72,74.25,75.05,72.42,76.14z" fill="#444444"/>
  </g>
</svg>

<svg viewBox="0 0 128 128" xmlns="http://www.w3.org/2000/svg">
  <defs>
    <linearGradient id="SVGID_1_" gradientTransform="matrix(1 0 0 -1 0 0)" gradientUnits="userSpaceOnUse" x1="64.005" x2="64.005" y1="-95.1002" y2="-122.9958">
      <stop offset="0" stop-color="#00BFA5"/>
      <stop offset="0.7047" stop-color="#00B29A"/>
      <stop offset="1" stop-color="#00AB94"/>
    </linearGradient>
  </defs>
  <path d="M64.13,94.68 L64,94.68 C38.51,94.71 12.87,102.18 12.87,119.96 L12.87,123.96 L14.37,123.96 L15.87,123.96 L112.14,123.96 L113.64,123.96 L115.14,123.96 L115.14,119.96 C115.13,103.2 89.73,94.68 64.13,94.68 Z" fill="url(#SVGID_1_)"/>
  <path id="neck" d="M73.08,90.08 L54.92,90.08 L54.92,100.06 C54.92,104.57 58.62,108.23 63.18,108.23 L64.83,108.23 C69.39,108.23 73.09,104.57 73.09,100.06 L73.09,90.08 L73.08,90.08 Z" fill="#EDC391"/>
  <path id="ears" d="M36.67,72.26 C31.31,72.26 26.96,67.59 26.96,61.85 C26.96,56.11 31.32,51.44 36.67,51.44 L91.32,51.44 C96.68,51.44 101.03,56.11 101.03,61.85 C101.03,67.59 96.67,72.26 91.32,72.26 L36.67,72.26 Z" fill="#EDC391"/>
  <path id="head" d="M64,11.07 C40,11.07 30.48,27.16 30.48,53.5 C30.48,80.14 47.09,95.27 64,95.27 C80.91,95.27 97.52,80.14 97.52,53.5 C97.52,26.72 88,11.07 64,11.07 Z" fill="#F9DDBD"/>
  <path d="M39.82,50.73 C43,46.22 50.48,46.07 54.23,49.91 C54.88,50.58 55.57,51.44 55.08,52.41 C54.54,53.48 53.43,53.31 52.52,52.94 C50.09,51.96 47.58,51.52 44.97,52.05 C43.84,52.28 42.87,52.75 41.8,53.13 C40.36,53.62 38.89,52.12 39.82,50.73 Z" fill="#454140"/>
  <path d="M86.27,53.13 C84.04,52.16 81.78,51.6 79.32,51.88 C78.2,52.01 77.1,52.3 76.06,52.71 C75.23,53.04 74.34,53.57 73.48,52.99 C71.03,51.3 75.37,48.55 76.65,48 C79.41,46.81 82.7,46.92 85.37,48.31 C86.43,48.86 87.58,49.66 88.21,50.71 C89,52.02 87.82,53.76 86.27,53.13 Z" fill="#454140"/>
  <path d="M52.3,58.81 A4.93 5.1 0 1 1 42.44,58.81 A4.93 5.1 0 1 1 52.3,58.81 Z" fill="#312D2D"/>
  <path d="M85.56,58.81 A4.93 5.1 0 1 1 75.7,58.81 A4.93 5.1 0 1 1 85.56,58.81 Z" fill="#312D2D"/>
  <path id="nose" d="M67.85,68.06 C67.74,68.02 67.64,67.99 67.53,67.98 L60.46,67.98 C60.35,67.99 60.24,68.02 60.14,68.06 C59.5,68.32 59.15,68.98 59.45,69.69 C59.75,70.4 61.16,72.38 64,72.38 C66.84,72.38 68.25,70.39 68.55,69.69 C68.84,68.98 68.49,68.32 67.85,68.06 Z" fill="#DBA689"/>
  <path id="mouth" d="M72.42,76.14 C69.23,78.03 58.79,78.03 55.61,76.14 C53.78,75.05 51.91,76.72 52.67,78.38 C53.42,80.01 59.12,83.8 64.04,83.8 C68.96,83.8 74.59,80.01 75.34,78.38 C76.09,76.72 74.25,75.05 72.42,76.14 Z" fill="#444444"/>
</svg>
